flaticon/education/diploma.svg

<svg xmlns="http://www.w3.org/2000/svg" width="32" height="32" viewBox="0 0 24 24">
    <path d="M 24 3.429688 C 24 2.039062 22.90625 0.960938 21.429688 0.863281 L 21.429688 0.855469 L 7.285156 0.855469 C 5.871094 0.855469 4.714844 2.015625 4.714844 3.429688 L 4.714844 17.144531 L 0 17.144531 L 0 20.570312 C 0 21.984375 1.027344 23.015625 2.570312 23.144531 L 16.285156 23.144531 C 17.957031 23.144531 19.285156 21.8125 19.285156 20.144531 L 19.285156 7.714844 L 24 7.714844 Z M 0.855469 20.570312 L 0.855469 18 L 13.714844 18 L 13.714844 20.570312 C 13.714844 21.25 13.953125 21.839844 14.371094 22.285156 L 2.613281 22.285156 C 1.585938 22.199219 0.855469 21.515625 0.855469 20.570312 Z M 12.855469 15.429688 C 12.855469 14.230469 13.800781 13.285156 15 13.285156 C 16.199219 13.285156 17.144531 14.230469 17.144531 15.429688 C 17.144531 16.019531 16.914062 16.546875 16.539062 16.933594 C 16.496094 16.949219 16.453125 16.976562 16.414062 17.015625 C 15.929688 17.460938 15.25 17.648438 14.570312 17.519531 L 14.570312 17.144531 L 13.714844 17.144531 C 13.15625 16.757812 12.855469 16.113281 12.855469 15.429688 Z M 14.570312 18.402344 C 14.710938 18.421875 14.855469 18.429688 15 18.429688 C 15.460938 18.429688 15.898438 18.328125 16.285156 18.144531 L 16.285156 19.714844 L 15.257812 18.941406 C 15.171875 18.898438 15.085938 18.855469 15 18.855469 C 14.914062 18.855469 14.828125 18.898438 14.742188 18.941406 L 14.570312 19.070312 Z M 18.429688 20.144531 C 18.429688 21.34375 17.484375 22.285156 16.328125 22.285156 C 15.300781 22.199219 14.570312 21.515625 14.570312 20.570312 L 14.570312 20.148438 L 15 19.84375 L 16.457031 20.914062 C 16.542969 20.957031 16.628906 21 16.714844 21 C 16.800781 21 16.84375 21 16.886719 20.957031 C 17.058594 20.871094 17.144531 20.742188 17.144531 20.570312 L 17.144531 17.539062 C 17.675781 17 18 16.253906 18 15.429688 C 18 13.757812 16.671875 12.429688 15 12.429688 C 13.328125 12.429688 12 13.757812 12 15.429688 C 12 16.042969 12.183594 16.644531 12.53125 17.144531 L 5.570312 17.144531 L 5.570312 3.429688 C 5.570312 2.484375 6.34375 1.714844 7.285156 1.714844 L 19.109375 1.714844 C 19.050781 1.773438 19 1.835938 18.949219 1.898438 C 18.648438 2.273438 18.460938 2.75 18.433594 3.28125 C 18.433594 3.285156 18.433594 3.289062 18.433594 3.292969 C 18.429688 3.339844 18.429688 3.382812 18.429688 3.429688 Z M 23.144531 6.855469 L 19.285156 6.855469 L 19.285156 3.429688 C 19.285156 3.394531 19.285156 3.359375 19.289062 3.328125 C 19.289062 3.320312 19.289062 3.3125 19.289062 3.308594 C 19.292969 3.28125 19.292969 3.253906 19.296875 3.226562 C 19.296875 3.222656 19.296875 3.214844 19.300781 3.210938 C 19.300781 3.183594 19.304688 3.15625 19.308594 3.132812 C 19.3125 3.125 19.3125 3.121094 19.3125 3.117188 C 19.316406 3.089844 19.324219 3.0625 19.328125 3.039062 C 19.332031 3.03125 19.332031 3.027344 19.332031 3.023438 C 19.339844 3 19.34375 2.972656 19.351562 2.949219 C 19.355469 2.941406 19.355469 2.9375 19.359375 2.929688 C 19.367188 2.910156 19.371094 2.886719 19.378906 2.863281 C 19.382812 2.855469 19.386719 2.847656 19.390625 2.839844 C 19.398438 2.820312 19.402344 2.800781 19.414062 2.78125 C 19.417969 2.773438 19.421875 2.761719 19.425781 2.75 C 19.433594 2.734375 19.441406 2.722656 19.445312 2.707031 C 19.453125 2.691406 19.460938 2.675781 19.46875 2.664062 C 19.472656 2.652344 19.480469 2.644531 19.484375 2.636719 C 19.496094 2.617188 19.507812 2.597656 19.519531 2.578125 C 19.519531 2.574219 19.519531 2.574219 19.523438 2.570312 C 19.785156 2.152344 20.230469 1.890625 20.703125 1.773438 C 20.871094 1.734375 21.042969 1.714844 21.214844 1.714844 C 22.15625 1.714844 23.144531 2.3125 23.144531 3.429688 Z M 23.144531 6.855469"/>
    <path d="M7.714844 6L12 6C12.257812 6 12.429688 5.828125 12.429688 5.570312 12.429688 5.3125 12.257812 5.144531 12 5.144531L7.714844 5.144531C7.457031 5.144531 7.285156 5.3125 7.285156 5.570312 7.285156 5.828125 7.457031 6 7.714844 6zM16.285156 7.285156L7.714844 7.285156C7.457031 7.285156 7.285156 7.457031 7.285156 7.714844 7.285156 7.972656 7.457031 8.144531 7.714844 8.144531L16.285156 8.144531C16.542969 8.144531 16.714844 7.972656 16.714844 7.714844 16.714844 7.457031 16.542969 7.285156 16.285156 7.285156zM15 9.429688L7.714844 9.429688C7.457031 9.429688 7.285156 9.601562 7.285156 9.855469 7.285156 10.113281 7.457031 10.285156 7.714844 10.285156L15 10.285156C15.257812 10.285156 15.429688 10.113281 15.429688 9.855469 15.429688 9.601562 15.257812 9.429688 15 9.429688zM12.429688 11.570312L7.714844 11.570312C7.457031 11.570312 7.285156 11.742188 7.285156 12 7.285156 12.257812 7.457031 12.429688 7.714844 12.429688L12.429688 12.429688C12.6875 12.429688 12.855469 12.257812 12.855469 12 12.855469 11.742188 12.6875 11.570312 12.429688 11.570312zM10.714844 13.714844L7.714844 13.714844C7.457031 13.714844 7.285156 13.886719 7.285156 14.144531 7.285156 14.398438 7.457031 14.570312 7.714844 14.570312L10.714844 14.570312C10.972656 14.570312 11.144531 14.398438 11.144531 14.144531 11.144531 13.886719 10.972656 13.714844 10.714844 13.714844zM10.714844 13.714844"/>
</svg>

<svg xmlns="http://www.w3.org/2000/svg" width="32" height="32" viewBox="0 0 24 24">
    <path d="M24 3.43C24 2.04 22.906.96 21.43.863V.855H7.285a2.58 2.58 0 0 0-2.57 2.575v13.715H0v3.425c0 1.414 1.027 2.446 2.57 2.575h13.715c1.672 0 3-1.332 3-3V7.715H24zM.855 20.57V18h12.86v2.57c0 .68.238 1.27.656 1.715H2.613C1.586 22.2.855 21.515.855 20.57zm12-5.14c0-1.2.946-2.145 2.145-2.145 1.2 0 2.145.945 2.145 2.145 0 .59-.23 1.117-.606 1.504a.346.346 0 0 0-.125.082 2.125 2.125 0 0 1-1.844.504v-.375h-.855c-.559-.387-.86-1.032-.86-1.715zm1.715 2.972a3.134 3.134 0 0 0 1.715-.257v1.57l-1.027-.774c-.086-.043-.172-.086-.258-.086-.086 0-.172.043-.258.086l-.172.13zm3.86 1.743c0 1.199-.946 2.14-2.102 2.14-1.027-.086-1.758-.77-1.758-1.715v-.422l.43-.304 1.457 1.07c.086.043.172.086.258.086.086 0 .129 0 .172-.043.172-.086.258-.215.258-.387v-3.03c.53-.54.855-1.286.855-2.11 0-1.672-1.328-3-3-3s-3 1.328-3 3c0 .613.184 1.215.531 1.715h-6.96V3.43a1.72 1.72 0 0 1 1.714-1.715H19.11a2.393 2.393 0 0 0-.676 1.566v.012c-.003.047-.003.09-.003.137zm4.715-13.29h-3.86V3.43c0-.035 0-.07.004-.102v-.02c.004-.027.004-.054.008-.081 0-.004 0-.012.004-.016a.48.48 0 0 1 .008-.078c.003-.008.003-.012.003-.016.004-.027.012-.054.016-.078.004-.008.004-.012.004-.016.008-.023.012-.05.02-.074l.007-.02c.008-.019.012-.042.02-.066l.012-.023c.007-.02.011-.04.023-.059l.012-.031c.008-.016.015-.027.02-.043.007-.016.015-.031.023-.043.004-.012.011-.02.015-.027l.036-.059c0-.004 0-.004.003-.008.262-.418.707-.68 1.18-.797.168-.039.34-.058.512-.058.941 0 1.93.597 1.93 1.715zm0 0"/>
    <path d="M7.715 6H12c.258 0 .43-.172.43-.43s-.172-.425-.43-.425H7.715c-.258 0-.43.168-.43.425 0 .258.172.43.43.43zm0 0M16.285 7.285h-8.57c-.258 0-.43.172-.43.43s.172.43.43.43h8.57c.258 0 .43-.172.43-.43s-.172-.43-.43-.43zm0 0M15 9.43H7.715c-.258 0-.43.172-.43.425 0 .258.172.43.43.43H15c.258 0 .43-.172.43-.43 0-.253-.172-.425-.43-.425zm0 0M12.43 11.57H7.715c-.258 0-.43.172-.43.43s.172.43.43.43h4.715c.258 0 .425-.172.425-.43s-.168-.43-.425-.43zm0 0M10.715 13.715h-3c-.258 0-.43.172-.43.43 0 .253.172.425.43.425h3c.258 0 .43-.172.43-.425 0-.258-.172-.43-.43-.43zm0 0"/>
</svg>
